X: 98
T:Congress Reel, The
M:C|
L:1/8
R:Reel
K:ADor
eAAG ABcd|e2af gedB|"var."eA (3cBA eA (3cBA|BGGF GABd|!
eAAG ABcd|e2af gedB|~c3d eged|cABG A2Bd:|!
|:eaag abag|eaaf gedg|egdg egdg|ea~a2 gedg|!
eaag abag|eaaf gedB|~c3d eged|cABG A2Bd:|]!
